packages/ui-icons/src/Service-logos/24/Tik-Tok.svg

<svg viewBox="0 0 32 32" fill="none" xmlns="http://www.w3.org/2000/svg">
<path d="M16 28C22.6274 28 28 22.6274 28 16C28 9.37258 22.6274 4 16 4C9.37258 4 4 9.37258 4 16C4 22.6274 9.37258 28 16 28Z" fill="black"/>
<path fill-rule="evenodd" clip-rule="evenodd" d="M16.8102 19.2838C16.7652 20.4861 15.7758 21.4509 14.563 21.4509C14.2062 21.4506 13.8546 21.3653 13.5372 21.2021C13.2199 21.039 12.946 20.8026 12.7381 20.5126C13.06 20.6824 13.4185 20.7711 13.7825 20.771C14.995 20.771 15.9847 19.8066 16.0294 18.6046L16.0338 7.87097H18.7118C18.7121 8.09895 18.7333 8.32643 18.7752 8.55053H16.8143L16.8102 19.2838ZM22.4381 12.1936V12.1937H22.4384C22.4383 12.1937 22.4382 12.1936 22.4381 12.1936ZM22.4381 12.1936V11.5972C21.7174 11.5978 21.0123 11.3882 20.4091 10.9939C20.9378 11.6028 21.6498 12.0237 22.4381 12.1936ZM14.4468 13.6384V14.2726C11.7821 14.3351 9.63362 16.5201 9.63362 19.1996C9.63293 20.4459 10.1062 21.6458 10.9574 22.5561C9.68612 21.6635 8.85278 20.1875 8.85278 18.5201C8.85278 15.8018 11.0642 13.59 13.7825 13.59C14.0047 13.5911 14.2267 13.6073 14.4468 13.6384Z" fill="#25F4EE"/>
<path fill-rule="evenodd" clip-rule="evenodd" d="M19.4929 8.5509C19.4926 9.44923 19.8182 10.3172 20.4093 10.9936C19.9859 10.7182 19.6227 10.3597 19.3419 9.93979C19.061 9.51992 18.8683 9.04742 18.7754 8.5509H19.4929ZM12.1917 16.9286C12.6137 16.5065 13.1859 16.2691 13.7828 16.2684C14.0083 16.2692 14.2323 16.3043 14.4471 16.3727V14.2726C14.4626 14.2723 14.478 14.2718 14.4934 14.2712C14.5166 14.2704 14.5398 14.2696 14.5633 14.2696C14.7855 14.2707 15.0075 14.2868 15.2276 14.318V17.0523C15.0176 16.9863 14.7953 16.948 14.5633 16.948C13.9663 16.9487 13.3941 17.1861 12.972 17.6083C12.5499 18.0304 12.3126 18.6027 12.312 19.1997C12.312 19.6713 12.4611 20.1308 12.738 20.5126C12.3744 20.3219 12.0698 20.0354 11.8571 19.6842C11.6445 19.333 11.5319 18.9303 11.5315 18.5197C11.5322 17.9229 11.7696 17.3506 12.1917 16.9286ZM22.438 14.2752V12.1937V12.1933C22.69 12.2473 22.9507 12.2764 23.2188 12.2764V14.9551C21.8817 14.9567 20.5781 14.5375 19.4926 13.7569V19.1997C19.4926 21.9175 17.2811 24.129 14.5629 24.129C13.886 24.1291 13.2163 23.9895 12.5959 23.7188C11.9755 23.4481 11.4176 23.0521 10.9573 22.5557C11.7579 23.118 12.732 23.4494 13.7824 23.4494C16.5007 23.4494 18.7117 21.238 18.7117 18.5197V13.0769C19.7625 13.831 21.0491 14.2752 22.438 14.2752Z" fill="#FE2C55"/>
<path fill-rule="evenodd" clip-rule="evenodd" d="M18.7116 18.5197V13.0769C19.7971 13.8576 21.1008 14.2768 22.4378 14.2752V12.1937C21.6495 12.0237 20.9375 11.6026 20.4088 10.9936C19.9854 10.7182 19.6222 10.3597 19.3414 9.9398C19.0605 9.51993 18.8678 9.04743 18.7749 8.5509H16.8141L16.81 19.2842C16.7649 20.4862 15.7756 21.4509 14.5628 21.4509C14.206 21.4506 13.8544 21.3653 13.537 21.2021C13.2197 21.039 12.9458 20.8026 12.7379 20.5126C12.3742 20.3219 12.0695 20.0355 11.8568 19.6843C11.6441 19.333 11.5315 18.9303 11.531 18.5197C11.5317 17.9229 11.7691 17.3506 12.1912 16.9286C12.6132 16.5065 13.1855 16.2691 13.7823 16.2684C14.0139 16.2684 14.2362 16.3064 14.4466 16.3727V14.2726C11.782 14.3351 9.63348 16.5202 9.63348 19.1997C9.63348 20.4955 10.1369 21.6751 10.9572 22.5561C11.7842 23.1383 12.771 23.4503 13.7823 23.4494C16.5005 23.4494 18.7116 21.238 18.7116 18.5197Z" fill="white"/>
</svg>

<svg viewBox="0 0 32 32" fill="none" xmlns="http://www.w3.org/2000/svg"><path d="M16 28c6.627 0 12-5.373 12-12S22.627 4 16 4 4 9.373 4 16s5.373 12 12 12Z" fill="#000"/><path fill-rule="evenodd" clip-rule="evenodd" d="M16.81 19.284a2.253 2.253 0 0 1-2.247 2.167 2.247 2.247 0 0 1-1.825-.938 2.252 2.252 0 0 0 3.291-1.908l.005-10.734h2.678c0 .228.021.455.063.68h-1.96l-.005 10.733Zm5.628-7.09Zm0 0v-.597c-.72 0-1.426-.209-2.029-.603a3.727 3.727 0 0 0 2.03 1.2Zm-7.991 1.444v.635A4.934 4.934 0 0 0 9.634 19.2a4.91 4.91 0 0 0 1.323 3.356 4.927 4.927 0 0 1-2.104-4.036 4.936 4.936 0 0 1 4.93-4.93c.222.001.444.017.664.048Z" fill="#25F4EE"/><path fill-rule="evenodd" clip-rule="evenodd" d="M19.493 8.55c0 .9.325 1.767.916 2.444a3.732 3.732 0 0 1-1.634-2.443h.718Zm-7.301 8.379c.422-.422.994-.66 1.59-.66.226 0 .45.035.665.104v-2.1l.046-.002.07-.001c.223 0 .444.017.665.048v2.734a2.21 2.21 0 0 0-.665-.104 2.254 2.254 0 0 0-2.251 2.252c0 .471.15.93.426 1.313a2.254 2.254 0 0 1-1.207-1.993c.001-.597.239-1.17.66-1.591Zm10.246-2.654v-2.081c.252.053.513.082.78.082v2.68a6.37 6.37 0 0 1-3.725-1.2V19.2a4.935 4.935 0 0 1-4.93 4.929 4.917 4.917 0 0 1-3.606-1.573 4.9 4.9 0 0 0 2.825.893 4.935 4.935 0 0 0 4.93-4.93v-5.442a6.37 6.37 0 0 0 3.726 1.198Z" fill="#FE2C55"/><path fill-rule="evenodd" clip-rule="evenodd" d="M18.712 18.52v-5.443c1.085.78 2.389 1.2 3.726 1.198v-2.081a3.728 3.728 0 0 1-2.03-1.2 3.732 3.732 0 0 1-1.633-2.443h-1.96l-.005 10.733a2.252 2.252 0 0 1-2.247 2.167 2.247 2.247 0 0 1-1.825-.938 2.253 2.253 0 0 1-1.207-1.993 2.254 2.254 0 0 1 2.251-2.252c.232 0 .454.038.665.105v-2.1A4.935 4.935 0 0 0 9.633 19.2c0 1.296.504 2.475 1.324 3.356a4.9 4.9 0 0 0 2.825.893 4.935 4.935 0 0 0 4.93-4.93Z" fill="#fff"/></svg>
